knapsack/src/client/assets/knapsack.svg

<svg height="729" viewBox="0 0 2351 729" width="2351" xmlns="http://www.w3.org/2000/svg"><g fill="none" fill-rule="evenodd"><path d="m161 107v454 78l155 90 158-91 158-91v-156l-68 39v77l-248 143-87-50v-471l87-51 248 143v89l-299 173v78l299-172 68-40v-78-89l-158-91-158-91-155 90zm104 151 159 91 68-39-227-131zm-140-69-19 11-38 21v286l57 33v78l-125-71v-183-182l125-72z" fill="#f3990d"/><path d="m884 298c-25 0-46 8-60 24v-97h-58v276h55v-23c14 17 36 26 63 26 56 0 99-40 99-103s-43-103-99-103zm-10 158c-29 0-51-21-51-55 0-35 22-56 51-56s51 21 51 56c0 34-22 55-51 55zm249 1c-26 0-45-10-54-29l148-29c0-64-47-101-103-101-62 0-107 43-107 103 0 59 45 103 114 103 36 0 64-11 83-33l-31-33c-14 13-29 19-50 19zm-9-115c24 0 42 14 47 34l-97 19c1-34 21-53 50-53zm288-117v97c-15-16-35-24-60-24-56 0-100 40-100 103s44 103 100 103c27 0 48-9 62-26v23h56v-276zm-50 231c-29 0-51-21-51-55 0-35 22-56 51-56s51 21 51 56c0 34-22 55-51 55zm217-129v-26h-56v200h58v-95c0-38 21-55 53-55h13v-53c-30 0-54 10-68 29zm196 177c64 0 110-43 110-103s-46-103-110-103c-63 0-110 43-110 103s47 103 110 103zm0-48c-29 0-51-21-51-55 0-35 22-56 51-56s51 21 51 56c0 34-22 55-51 55zm245 48c42 0 75-19 89-51l-44-24c-11 19-27 27-45 27-30 0-53-20-53-55s23-56 53-56c18 0 34 9 45 28l44-24c-14-33-47-51-89-51-65 0-111 43-111 103s46 103 111 103zm270-3h71l-91-115 83-85h-69l-85 80v-156h-58v276h58v-51l28-28z" fill="#4d4d4d" fill-rule="nonzero"/></g></svg>

<?xml version="1.0" encoding="UTF-8"?>
<svg width="2351px" height="729px" viewBox="0 0 2351 729" version="1.1" xmlns="http://www.w3.org/2000/svg" xmlns:xlink="http://www.w3.org/1999/xlink">
    <!-- Generator: Sketch 51.3 (57544) - http://www.bohemiancoding.com/sketch -->
    <title>Group</title>
    <desc>Created with Sketch.</desc>
    <defs></defs>
    <g id="Page-1" stroke="none" stroke-width="1" fill="none" fill-rule="evenodd">
        <g id="knapsack-1">
            <g id="_506333448">
                <g id="Group">
                    <path d="M161,107 L161,561 L161,639 L316,729 L474,638 L632,547 L632,391 L564,430 L564,507 L316,650 L229,600 L229,129 L316,78 L564,221 L564,310 L265,483 L265,561 L564,389 L632,349 L632,271 L632,182 L474,91 L316,0 L161,90 L161,107 Z M265,258 L424,349 L492,310 L265,179 L265,258 Z M125,189 L106,200 L68,221 L68,507 L125,540 L125,618 L0,547 L0,364 L0,182 L125,110 L125,189 Z" id="Shape" fill="#F3990D"></path>
                    <path d="M884,298 C859,298 838,306 824,322 L824,225 L766,225 L766,501 L821,501 L821,478 C835,495 857,504 884,504 C940,504 983,464 983,401 C983,338 940,298 884,298 Z M874,456 C845,456 823,435 823,401 C823,366 845,345 874,345 C903,345 925,366 925,401 C925,435 903,456 874,456 Z M1123,457 C1097,457 1078,447 1069,428 L1217,399 C1217,335 1170,298 1114,298 C1052,298 1007,341 1007,401 C1007,460 1052,504 1121,504 C1157,504 1185,493 1204,471 L1173,438 C1159,451 1144,457 1123,457 Z M1114,342 C1138,342 1156,356 1161,376 L1064,395 C1065,361 1085,342 1114,342 Z M1402,225 L1402,322 C1387,306 1367,298 1342,298 C1286,298 1242,338 1242,401 C1242,464 1286,504 1342,504 C1369,504 1390,495 1404,478 L1404,501 L1460,501 L1460,225 L1402,225 Z M1352,456 C1323,456 1301,435 1301,401 C1301,366 1323,345 1352,345 C1381,345 1403,366 1403,401 C1403,435 1381,456 1352,456 Z M1569,327 L1569,301 L1513,301 L1513,501 L1571,501 L1571,406 C1571,368 1592,351 1624,351 C1629,351 1633,351 1637,351 L1637,298 C1607,298 1583,308 1569,327 Z M1765,504 C1829,504 1875,461 1875,401 C1875,341 1829,298 1765,298 C1702,298 1655,341 1655,401 C1655,461 1702,504 1765,504 Z M1765,456 C1736,456 1714,435 1714,401 C1714,366 1736,345 1765,345 C1794,345 1816,366 1816,401 C1816,435 1794,456 1765,456 Z M2010,504 C2052,504 2085,485 2099,453 L2055,429 C2044,448 2028,456 2010,456 C1980,456 1957,436 1957,401 C1957,366 1980,345 2010,345 C2028,345 2044,354 2055,373 L2099,349 C2085,316 2052,298 2010,298 C1945,298 1899,341 1899,401 C1899,461 1945,504 2010,504 Z M2280,501 L2351,501 L2260,386 L2343,301 L2274,301 L2189,381 L2189,225 L2131,225 L2131,501 L2189,501 L2189,450 L2217,422 L2280,501 Z" id="Shape" fill="#4D4D4D" fill-rule="nonzero"></path>
                </g>
            </g>
        </g>
    </g>
</svg>
